X: 39880
T: This Is My Love, Do You Like Her?
R: jig
M: 6/8
K: Edorian
|:E2E EDE|G3 A3|B2B BAB|d3 e3|
dBA GAB|AFD DEF|G2E FED|E3 E3:|
|:e2e edB|e3 f2e|d2B BAB|d3 e3|
dBA GAB|AFE DEF|G2E FED|E3 E3:|

